X:703
T:Kid on the Mountain, The
M:9/8
R:SlipJig
L:1/8
Z:O'Neill's
K:G
~E3 ~F3 G2F|~E3 BcA BGE|~E3 ~F3 G2A|BAG FAG FED::\
BGB AGF G2D|GAB dgf dBG|~B3 AGF G2A|BAG FAG FED::\
gfg ede e2f|~g3 efg afe|1 gfg efe e2g/2a/2|bag fag fed:|2\
~g3 agf g2a|bag f/2g/2ag fed|:\
eBe e2f ~g3|eBe efg afd|eBe e2f g2a|bag f/2g/2ag fed::\
edB dBA G2D|GAB dge dBA|edB dBA G2A|BAG FAG FED:|
